logos/medusa-icon.svg

<?xml version="1.0" encoding="UTF-8"?>
<svg width="256px" height="277px" viewBox="0 0 256 277" version="1.1" xmlns="http://www.w3.org/2000/svg" preserveAspectRatio="xMidYMid">
    <title>Medusa</title>
    <defs>
        <linearGradient x1="-66.6972559%" y1="81.8702074%" x2="108.629506%" y2="34.4186803%" id="medusaLinearGradient-1">
            <stop stop-color="#592EE1" offset="26.5625%"></stop>
            <stop stop-color="#B836D9" offset="100%"></stop>
        </linearGradient>
    </defs>
    <g>
        <path d="M223.516603,44.823358 L161.173777,8.84957346 C140.775738,-2.94985782 115.780747,-2.94985782 95.3824043,8.84957346 L32.7517949,44.823358 C12.6410532,56.6227741 0,78.4949069 0,101.806259 L0,174.041066 C0,197.640201 12.6410532,219.224247 32.7517949,231.02336 L95.0952275,267.285565 C115.49357,279.084678 140.487651,279.084678 160.885994,267.285565 L223.229427,231.02336 C243.62777,219.224247 255.981222,197.640201 255.981222,174.041066 L255.981222,101.806259 C256.555575,78.4949069 243.914946,56.6227741 223.516603,44.823358 Z M128.134199,202.244733 C92.7966006,202.244733 64.0670996,173.465802 64.0670996,138.067554 C64.0670996,102.669002 92.7966006,73.8903751 128.134199,73.8903751 C163.471798,73.8903751 192.488779,102.669002 192.488779,138.067554 C192.488779,173.465802 163.758974,202.244733 128.134199,202.244733 Z" fill="url(#medusaLinearGradient-1)"></path>
    </g>
</svg>

<?xml version="1.0" encoding="UTF-8"?>
<svg width="256" height="277" version="1.1" xmlns="http://www.w3.org/2000/svg" preserveAspectRatio="xMidYMid">
	<defs>
		<linearGradient x1="-66.697%" y1="81.87%" x2="108.63%" y2="34.419%" id="a">
			<stop stop-color="#592EE1" offset="26.563%"/>
			<stop stop-color="#B836D9" offset="100%"/>
		</linearGradient>
	</defs>
	<path d="M223.517 44.823 161.174 8.85a65.565 65.565 0 0 0-65.792 0l-62.63 35.973C12.642 56.623 0 78.495 0 101.806v72.235c0 23.6 12.641 45.183 32.752 56.982l62.343 36.263a65.565 65.565 0 0 0 65.791 0l62.343-36.263c20.399-11.799 32.752-33.383 32.752-56.982v-72.235c.575-23.311-12.066-45.183-32.464-56.983Zm-95.383 157.422c-35.337 0-64.067-28.78-64.067-64.177 0-35.399 28.73-64.178 64.067-64.178 35.338 0 64.355 28.779 64.355 64.178 0 35.398-28.73 64.177-64.355 64.177Z" fill="url(#a)"/>
</svg>
